X:1
T: The Cushion Dance
C:
R:Jig
Q:180
K:A
M:6/8
L:1/16
|:z2|e6 f6|e2d2c2 B4A2|F2G2A2 E4c2|d4c2 B4A2|
e6 f6|e2d2c2 B4A2|e2c2A2 F4E2|F6 A4:|
|:e2|a2c'2e2 a2c'2e2|b2d'2g2 b2d'2g2|a2c'2e2 a2c'2e2|g2b2e2 g2b2e2|
a2c'2e2 a2c'2a2|b2d'2e2 b2c'2d'2|c'2b2a2 f4e2|f6 a4:|
